X:10
T:Dom Oiche Ud I mBeithil
R:air
Z:John Walsh Dec 99
S:John Walsh <walsh:math.ubc.ca> irtrad-l 2001-12-7
M:3/4
Q:3/4=45
K:D
F2|B4 d2|c4 BA|B6-|B2 z2 Bc|d3e f2|c4 B2|A6-|A2 z2 F2|
B4 d2|c4 BA|B6-|B2 z2 c2|d3 ef2|c4 B2|B6-|B2 z2 f2|
a4 f2|e4 fa|b6-|b2 z2 b2|a4 fe|d4 e2|f6-|f2 z2 F2|
B4 d2|c4 BA|B6-|B2 z2 Bc|d3 ef2|c4 B2|B6-|B2 z2 ||
